X: 4
T: Chief O'Neill's Favourite
R: hornpipe
M: 4/4
L: 1/8
K: Dmaj
d-e|fef(g af)ge|fde(d dc)AG|F-EF-D FGA(B|c)Adc A2d-e|
fef(g af)ge|fde(d dc)AG|F-EF-D GBAG|F2D2 D2:|
D-E|(FEF)(D FG)AB|cAd(B cA)GB|Add(e fd)ed|c(Adc) A2d-e|
fef(g af)ge|fde(d dc)AG|F-EF-D GBAG|F2D2 D2:|


Tune 13	Setting 13

